!!!COM: Palestrina, Giovanni Perluigi da
!!!OPR: Missa De Beata Marie Virginis (II)
!!!OMD: Gloria
!!!OTL: Benedicimus te
**kern	**kern	**kern	**kern	**kern
*Ibass	*Itenor	*Itenor	*Icalto	*Icant
!Bassus	!Tenor 2	!Tenor 1	!Altus	!Cantus
*clefF4	*clefGv2	*clefGv2	*clefG2	*clefG2
*k[]	*k[]	*k[]	*k[]	*k[]
*G:mix	*G:mix	*G:mix	*G:mix	*G:mix
*M4/2	*M4/2	*M4/2	*M4/2	*M4/2
=8	=8	=8	=8	=8
0r	0r	0r	1.g	1r
.	.	.	.	1dd
.	.	.	2f	.
=9	=9	=9	=9	=9
0r	0r	0r	2e	2cc
.	.	.	2d	2b
.	.	.	1f	2a
.	.	.	.	[2cc
=10	=10	=10	=10	=10
1r	2r	0r	1g	4cc]
.	.	.	.	4b
.	1g	.	.	4b
.	.	.	.	8a
.	.	.	.	8g
2r	.	.	1d	1a
[2d	2f	.	.	.
=11	=11	=11	=11	=11
2d]	1e	2r	2r	2.g
2c	.	1g	2e	.
.	.	.	.	4a
2B	2d	.	2g	2b
2A	4c	2f	2a	[2cc
.	4d	.	.	.
=12	=12	=12	=12	=12
1c	4e	1e	2g	4cc]
.	4f	.	.	4dd
.	2g	.	2cc	2ee
2.d	2.f	4d	2b	2ff
.	.	4e	.	.
.	.	4f	[2a	[2dd
8c	8e	4g	.	.
8B	8d	.	.	.
=13	=13	=13	=13	=13
0A	0e	2a	4a]	2dd]
.	.	.	8g	.
.	.	.	8f	.
.	.	2.a	2e	4cc#
.	.	.	.	4b
.	.	.	1a	1cc#
.	.	4g	.	.
.	.	2e	.	.
=14	=14	=14	=14	=14
[0D	[0d	[0f#	[0a	[0dd
=15	=15	=15	=15	=15
0D]	0d]	0f#]	0a]	0dd]
*-	*-	*-	*-	*-
!!!CDT: 1525/^1526/-1594/2/2
!!!OCY: Italia
!!!AGN: Mass (Paraphrase)
!!!AST: renaissance, vocal
!!!ASW: Gregorian Mass
!!!PWK: Masses, Book Mantuan I
!!!RNB: Cadence finals: D
!!!YOR: Le Opere Complete, v. 18, p. 126
!!!YOO: Rome, Italy: Fratelli Scalera
!!!END: 1992//
!!!EED: John Miller
!!!YEC: Copyright 2000, John Miller
!!!YEN: United States of America
!!!YEM: Rights to all derivative electronic formats reserved.
!!!YEM: Refer to licensing agreement for further details.
!!!YEM: This file must be accompanied by the licensing agreement.
!!!YEM: A copy of the licensing agreement may be found at http://www.music-cog.ohio-state.edu/HumdrumDatabases/Palestrina/license.txt
!!!EMD: converted to Humdrum by Bret Aarden
